X: 1271
T: Bill Hohn's Schottis No 1
B: australian traditional tunes wiki
M:4/4
L:1/8
R: Schottische
Q: 1/4=100
K:G
V:1 
|:"G"g2d>BG2d>g|"D"f>e d>ef2f2|f>e d>e f>e d>F|1"G"G>g d>BG2G2:|2"G" G>g d>BG2A2||
"G"B2(3BBB B2B2|G>B c>d e>d c>B|"D"A2(3AAA A2A2|F>A B>c f>e d>c|
"G"B2(3BBB B2B2|G>B c>d "D"e>d c>B|F>A B>c f>e d>c|"G"G>g d>B G4||
% abcbook-tune_id 6342d53a6da43d76cb8fcf76


% abcbook-boost 0
% abcbook-tablature 
% abcbook-transpose 
% abcbook-lastupdated 1665324356917
% abcbook-soundfonts 
% abcbook-repeats 1
% NFF Book 2007

